%
O01000
(Using high feed G1 F500. instead of G0.)
(T3 D=0.625 CR=0. - ZMIN=-0.9101 - flat end mill)
N10 G90 G17
N15 G20
N20 G53 G0 Z0.

(Adaptive1)
N25 T3 M6
N30 S8300 M3
N35 G54
N40 G17 G90
N45 M8
N50 G1 X0.8639 Y0.8417 F500.
N55 G0 G43 Z0.6 H3
N60 G0 Z0.2
N65 Z-0.7851
N70 G1 Z-0.8476 F15.
N75 X0.8637 Y0.8415 Z-0.8538
N80 X0.8629 Y0.8411 Z-0.8598
N85 X0.8616 Y0.8403 Z-0.8658
N90 X0.8598 Y0.8393 Z-0.8716
N95 X0.8575 Y0.838 Z-0.8771
N100 X0.8548 Y0.8364 Z-0.8824
N105 X0.8516 Y0.8346 Z-0.8873
N110 X0.848 Y0.8325 Z-0.8918
N115 X0.8441 Y0.8303 Z-0.896
N120 X0.8398 Y0.8278 Z-0.8996
N125 X0.8353 Y0.8252 Z-0.9028
N130 X0.8305 Y0.8224 Z-0.9054
N135 X0.8255 Y0.8196 Z-0.9075
N140 X0.8203 Y0.8166 Z-0.9089
N145 X0.815 Y0.8136 Z-0.9098
N150 X0.8097 Y0.8105 Z-0.9101
N155 G3 X0.7899 Y0.7961 I0.0568 J-0.0988
N160 G1 X0.7886 Y0.7949
N165 X0.7918 Y0.7845
N170 X0.7961 Y0.7737
N175 X0.8021 Y0.7605
N180 X0.8133 Y0.7377
N185 X0.8287 Y0.7083
N190 X0.8831 Y0.612
N195 X0.9096 Y0.5635
N200 X0.9348 Y0.5143
N205 X0.958 Y0.4641
N210 X0.9796 Y0.4133
N215 X0.9985 Y0.3613
N220 X1.015 Y0.3086
N225 X1.0292 Y0.2551
N230 X1.0404 Y0.201
N235 X1.0493 Y0.1464
N240 X1.0552 Y0.0915
N245 X1.0582 Y0.0363
N250 X1.0588 Y-0.019
N255 X1.0561 Y-0.0742
N260 X1.0506 Y-0.1292
N265 X1.0425 Y-0.1839
N270 X1.0313 Y-0.238
N275 X1.0175 Y-0.2916
N280 X1.0009 Y-0.3443
N285 X0.9814 Y-0.396
N290 X0.9597 Y-0.4469
N295 X0.9349 Y-0.4963
N300 X0.9076 Y-0.5443
N305 X0.8781 Y-0.5911
N310 X0.8458 Y-0.636
N315 X0.8116 Y-0.6793
N320 X0.775 Y-0.7208
N325 X0.7362 Y-0.7602
N330 X0.6957 Y-0.7978
N335 X0.653 Y-0.8329
N340 X0.6086 Y-0.8658
N345 X0.5626 Y-0.8966
N350 X0.5149 Y-0.9245
N355 X0.466 Y-0.9502
N360 X0.4158 Y-0.9733
N365 X0.3643 Y-0.9935
N370 X0.312 Y-1.0114
N375 X0.2588 Y-1.0262
N380 X0.2048 Y-1.0382
N385 X0.1504 Y-1.0478
N390 X0.0954 Y-1.0542
N395 X0.0403 Y-1.058
N400 X-0.015 Y-1.0584
N405 X-0.0702 Y-1.0561
N410 X-0.1253 Y-1.051
N415 X-0.1799 Y-1.0429
N420 X-0.2342 Y-1.0322
N425 X-0.2877 Y-1.0185
N430 X-0.3405 Y-1.002
N435 X-0.3924 Y-0.9831
N440 X-0.4431 Y-0.9611
N445 X-0.4927 Y-0.9366
N450 X-0.541 Y-0.9097
N455 X-0.5877 Y-0.8801
N460 X-0.6329 Y-0.8483
N465 X-0.6763 Y-0.8141
N470 X-0.7178 Y-0.7775
N475 X-0.7577 Y-0.7393
N480 X-0.7951 Y-0.6986
N485 X-0.8304 Y-0.6561
N490 X-0.8637 Y-0.6119
N495 X-0.8943 Y-0.5659
N500 X-0.9227 Y-0.5184
N505 X-0.9485 Y-0.4696
N510 X-0.9716 Y-0.4193
N515 X-0.9924 Y-0.3681
N520 X-1.0102 Y-0.3158
N525 X-1.0252 Y-0.2626
N530 X-1.0377 Y-0.2087
N535 X-1.047 Y-0.1542
N540 X-1.0537 Y-0.0994
N545 X-1.0574 Y-0.0442
N550 X-1.0581 Y0.0111
N555 X-1.0564 Y0.0663
N560 X-1.0514 Y0.1214
N565 X-1.0435 Y0.1761
N570 X-1.0331 Y0.2304
N575 X-1.0195 Y0.2839
N580 X-1.0033 Y0.3368
N585 X-0.9844 Y0.3887
N590 X-0.9626 Y0.4395
N595 X-0.9385 Y0.4893
N600 X-0.9116 Y0.5376
N605 X-0.8822 Y0.5844
N610 X-0.8507 Y0.6298
N615 X-0.8165 Y0.6733
N620 X-0.7803 Y0.715
N625 X-0.7419 Y0.7548
N630 X-0.7014 Y0.7924
N635 X-0.6592 Y0.8281
N640 X-0.615 Y0.8613
N645 X-0.5691 Y0.8921
N650 X-0.5219 Y0.9209
N655 X-0.473 Y0.9467
N660 X-0.4229 Y0.9701
N665 X-0.3717 Y0.991
N670 X-0.3194 Y1.0089
N675 X-0.2664 Y1.0243
N680 X-0.2125 Y1.0368
N685 X-0.1581 Y1.0463
N690 X-0.1032 Y1.0535
N695 X-0.0481 Y1.0573
N700 X0.0072 Y1.0583
N705 X0.0624 Y1.0566
N710 X0.1175 Y1.0517
N715 X0.1723 Y1.0443
N720 X0.2265 Y1.0338
N725 X0.2802 Y1.0204
N730 X0.3332 Y1.0047
N735 X0.3851 Y0.9858
N740 X0.436 Y0.9643
N745 X0.4859 Y0.9404
N750 X0.5342 Y0.9135
N755 X0.5805 Y0.8832
N760 X0.6234 Y0.8485
N765 X0.6633 Y0.8102
N770 X0.7004 Y0.7692
N775 X0.7352 Y0.7263
N780 X0.7679 Y0.6817
N785 X0.7989 Y0.6359
N790 X0.8279 Y0.5889
N795 X0.8552 Y0.5408
N800 X0.8804 Y0.4916
N805 X0.9035 Y0.4414
N810 X0.9244 Y0.3902
N815 X0.9428 Y0.3381
N820 X0.9586 Y0.2851
N825 X0.9718 Y0.2314
N830 X0.9822 Y0.1771
N835 X0.9898 Y0.1224
N840 X0.9945 Y0.0673
N845 X0.9962 Y0.012
N850 X0.995 Y-0.0432
N855 X0.9908 Y-0.0984
N860 X0.9836 Y-0.1532
N865 X0.9734 Y-0.2075
N870 X0.9603 Y-0.2612
N875 X0.9443 Y-0.3141
N880 X0.9254 Y-0.366
N885 X0.9036 Y-0.4168
N890 X0.879 Y-0.4664
N895 X0.8517 Y-0.5144
N900 X0.8218 Y-0.5609
N905 X0.7893 Y-0.6056
N910 X0.7544 Y-0.6485
N915 X0.7172 Y-0.6894
N920 X0.6778 Y-0.7282
N925 X0.6363 Y-0.7647
N930 X0.5928 Y-0.7988
N935 X0.5475 Y-0.8305
N940 X0.5006 Y-0.8596
N945 X0.452 Y-0.8862
N950 X0.4021 Y-0.9099
N955 X0.351 Y-0.9309
N960 X0.2988 Y-0.949
N965 X0.2456 Y-0.9642
N970 X0.1917 Y-0.9764
N975 X0.1372 Y-0.9855
N980 X0.0822 Y-0.9916
N985 X0.027 Y-0.9946
N990 X-0.0283 Y-0.9945
N995 X-0.0834 Y-0.9914
N1000 X-0.1384 Y-0.9851
N1005 X-0.1929 Y-0.9759
N1010 X-0.2468 Y-0.9637
N1015 X-0.2999 Y-0.9485
N1020 X-0.3522 Y-0.9304
N1025 X-0.4033 Y-0.9094
N1030 X-0.4532 Y-0.8856
N1035 X-0.5017 Y-0.8591
N1040 X-0.5487 Y-0.8299
N1045 X-0.5939 Y-0.7982
N1050 X-0.6373 Y-0.764
N1055 X-0.6788 Y-0.7274
N1060 X-0.7181 Y-0.6885
N1065 X-0.7552 Y-0.6476
N1070 X-0.79 Y-0.6046
N1075 X-0.8223 Y-0.5598
N1080 X-0.8522 Y-0.5132
N1085 X-0.8794 Y-0.4651
N1090 X-0.9038 Y-0.4155
N1095 X-0.9255 Y-0.3647
N1100 X-0.9444 Y-0.3127
N1105 X-0.9603 Y-0.2598
N1110 X-0.9733 Y-0.2061
N1115 X-0.9832 Y-0.1517
N1120 X-0.9902 Y-0.0968
N1125 X-0.994 Y-0.0417
N1130 X-0.9948 Y0.0136
N1135 X-0.9925 Y0.0688
N1140 X-0.9871 Y0.1238
N1145 X-0.9787 Y0.1785
N1150 X-0.9672 Y0.2325
N1155 X-0.9528 Y0.2859
N1160 X-0.9354 Y0.3384
N1165 X-0.9152 Y0.3898
N1170 X-0.8921 Y0.4401
N1175 X-0.8663 Y0.489
N1180 X-0.8378 Y0.5363
N1185 X-0.8068 Y0.5821
N1190 X-0.7732 Y0.626
N1195 X-0.7373 Y0.668
N1200 X-0.699 Y0.7079
N1205 X-0.6586 Y0.7456
N1210 X-0.6162 Y0.7811
N1215 X-0.5718 Y0.8141
N1220 X-0.5257 Y0.8446
N1225 X-0.478 Y0.8724
N1230 X-0.4288 Y0.8976
N1235 X-0.3783 Y0.92
N1240 X-0.3266 Y0.9396
N1245 X-0.2739 Y0.9563
N1250 X-0.2203 Y0.9701
N1255 X-0.1661 Y0.9808
N1260 X-0.1114 Y0.9886
N1265 X-0.0563 Y0.9932
N1270 X-0.001 Y0.9949
N1275 X0.0542 Y0.9934
N1280 X0.1093 Y0.9888
N1285 X0.1641 Y0.9813
N1290 X0.2183 Y0.9706
N1295 X0.2719 Y0.957
N1300 X0.3246 Y0.9404
N1305 X0.3763 Y0.9207
N1310 X0.4264 Y0.8974
N1315 X0.4745 Y0.8702
N1320 X0.5205 Y0.8395
N1325 X0.5641 Y0.8055
N1330 X0.6053 Y0.7687
N1335 X0.6442 Y0.7294
N1340 X0.6808 Y0.688
N1345 X0.7151 Y0.6446
N1350 X0.7472 Y0.5996
N1355 X0.777 Y0.553
N1360 X0.8044 Y0.5051
N1365 X0.8295 Y0.4558
N1370 X0.8521 Y0.4054
N1375 X0.8721 Y0.3538
N1380 X0.8894 Y0.3013
N1385 X0.904 Y0.248
N1390 X0.9156 Y0.194
N1395 X0.9243 Y0.1394
N1400 X0.93 Y0.0844
N1405 X0.9326 Y0.0292
N1410 X0.9321 Y-0.0261
N1415 X0.9284 Y-0.0813
N1420 X0.9216 Y-0.1361
N1425 X0.9116 Y-0.1905
N1430 X0.8985 Y-0.2442
N1435 X0.8822 Y-0.297
N1440 X0.8628 Y-0.3488
N1445 X0.8404 Y-0.3993
N1450 X0.8151 Y-0.4485
N1455 X0.787 Y-0.4961
N1460 X0.7561 Y-0.5419
N1465 X0.7225 Y-0.5858
N1470 X0.6864 Y-0.6277
N1475 X0.6479 Y-0.6673
N1480 X0.6071 Y-0.7046
N1485 X0.5642 Y-0.7395
N1490 X0.5192 Y-0.7717
N1495 X0.4725 Y-0.8012
N1500 X0.424 Y-0.8278
N1505 X0.3741 Y-0.8515
N1510 X0.3229 Y-0.8723
N1515 X0.2705 Y-0.8899
N1520 X0.2171 Y-0.9044
N1525 X0.163 Y-0.9157
N1530 X0.1083 Y-0.9237
N1535 X0.0533 Y-0.9285
N1540 X-0.002 Y-0.93
N1545 X-0.0572 Y-0.9283
N1550 X-0.1123 Y-0.9232
N1555 X-0.167 Y-0.915
N1560 X-0.221 Y-0.9034
N1565 X-0.2743 Y-0.8887
N1570 X-0.3266 Y-0.8709
N1575 X-0.3778 Y-0.8499
N1580 X-0.4276 Y-0.826
N1585 X-0.4759 Y-0.7991
N1590 X-0.5225 Y-0.7694
N1595 X-0.5673 Y-0.737
N1600 X-0.6101 Y-0.7019
N1605 X-0.6507 Y-0.6644
N1610 X-0.689 Y-0.6246
N1615 X-0.7249 Y-0.5826
N1620 X-0.7582 Y-0.5385
N1625 X-0.7889 Y-0.4925
N1630 X-0.8168 Y-0.4448
N1635 X-0.8418 Y-0.3954
N1640 X-0.8638 Y-0.3447
N1645 X-0.8828 Y-0.2928
N1650 X-0.8986 Y-0.2398
N1655 X-0.9112 Y-0.186
N1660 X-0.9207 Y-0.1316
N1665 X-0.9268 Y-0.0766
N1670 X-0.9297 Y-0.0214
N1675 X-0.9293 Y0.0338
N1680 X-0.9257 Y0.089
N1685 X-0.9188 Y0.1438
N1690 X-0.9086 Y0.1982
N1695 X-0.8952 Y0.2518
N1700 X-0.8787 Y0.3046
N1705 X-0.8591 Y0.3563
N1710 X-0.8364 Y0.4067
N1715 X-0.8108 Y0.4556
N1720 X-0.7823 Y0.503
N1725 X-0.751 Y0.5486
N1730 X-0.7171 Y0.5922
N1735 X-0.6806 Y0.6338
N1740 X-0.6417 Y0.6731
N1745 X-0.6006 Y0.71
N1750 X-0.5573 Y0.7444
N1755 X-0.5121 Y0.7762
N1760 X-0.4651 Y0.8053
N1765 X-0.4164 Y0.8315
N1770 X-0.3663 Y0.8548
N1775 X-0.3149 Y0.8751
N1780 X-0.2623 Y0.8923
N1785 X-0.2089 Y0.9063
N1790 X-0.1547 Y0.9171
N1795 X-0.0999 Y0.9247
N1800 X-0.0448 Y0.9289
N1805 X0.0105 Y0.93
N1810 X0.0657 Y0.9277
N1815 X0.1207 Y0.9221
N1820 X0.1753 Y0.9133
N1825 X0.2292 Y0.901
N1830 X0.2821 Y0.885
N1835 X0.3337 Y0.8652
N1840 X0.3837 Y0.8416
N1845 X0.4318 Y0.8144
N1850 X0.4779 Y0.7839
N1855 X0.5218 Y0.7503
N1860 X0.5634 Y0.7138
N1865 X0.6026 Y0.6749
N1870 X0.6394 Y0.6336
N1875 X0.6737 Y0.5903
N1880 X0.7055 Y0.5451
N1885 X0.7348 Y0.4982
N1890 X0.7613 Y0.4497
N1895 X0.7852 Y0.3998
N1900 X0.8062 Y0.3487
N1905 X0.8243 Y0.2965
N1910 X0.8394 Y0.2433
N1915 X0.8514 Y0.1894
N1920 X0.8602 Y0.1348
N1925 X0.8658 Y0.0798
N1930 X0.8681 Y0.0246
N1935 X0.867 Y-0.0307
N1940 X0.8625 Y-0.0858
N1945 X0.8547 Y-0.1405
N1950 X0.8435 Y-0.1947
N1955 X0.829 Y-0.248
N1960 X0.8111 Y-0.3003
N1965 X0.7901 Y-0.3514
N1970 X0.7658 Y-0.4011
N1975 X0.7385 Y-0.4492
N1980 X0.7081 Y-0.4954
N1985 X0.6749 Y-0.5395
N1990 X0.6389 Y-0.5815
N1995 X0.6004 Y-0.6211
N2000 X0.5594 Y-0.6582
N2005 X0.5161 Y-0.6926
N2010 X0.4707 Y-0.7242
N2015 X0.4234 Y-0.7528
N2020 X0.3744 Y-0.7783
N2025 X0.3238 Y-0.8007
N2030 X0.272 Y-0.8198
N2035 X0.219 Y-0.8355
N2040 X0.1651 Y-0.8478
N2045 X0.1105 Y-0.8566
N2050 X0.0555 Y-0.8619
N2055 X0.0002 Y-0.8637
N2060 X-0.055 Y-0.8619
N2065 X-0.11 Y-0.8566
N2070 X-0.1646 Y-0.8478
N2075 X-0.2185 Y-0.8355
N2080 X-0.2715 Y-0.8198
N2085 X-0.3234 Y-0.8008
N2090 X-0.374 Y-0.7784
N2095 X-0.423 Y-0.7529
N2100 X-0.4703 Y-0.7244
N2105 X-0.5157 Y-0.6928
N2110 X-0.559 Y-0.6584
N2115 X-0.5999 Y-0.6212
N2120 X-0.6384 Y-0.5816
N2125 X-0.6743 Y-0.5395
N2130 X-0.7074 Y-0.4953
N2135 X-0.7377 Y-0.449
N2140 X-0.7649 Y-0.4009
N2145 X-0.789 Y-0.3511
N2150 X-0.8098 Y-0.2999
N2155 X-0.8274 Y-0.2475
N2160 X-0.8415 Y-0.1941
N2165 X-0.8522 Y-0.1398
N2170 X-0.8594 Y-0.085
N2175 X-0.8631 Y-0.0299
N2180 X-0.8632 Y0.0254
N2185 X-0.8598 Y0.0806
N2190 X-0.8529 Y0.1354
N2195 X-0.8425 Y0.1897
N2200 X-0.8286 Y0.2432
N2205 X-0.8113 Y0.2957
N2210 X-0.7907 Y0.347
N2215 X-0.7669 Y0.3969
N2220 X-0.74 Y0.4452
N2225 X-0.71 Y0.4916
N2230 X-0.6771 Y0.5361
N2235 X-0.6414 Y0.5783
N2240 X-0.6031 Y0.6181
N2245 X-0.5623 Y0.6554
N2250 X-0.5192 Y0.69
N2255 X-0.474 Y0.7218
N2260 X-0.4268 Y0.7507
N2265 X-0.3779 Y0.7765
N2270 X-0.3275 Y0.799
N2275 X-0.2757 Y0.8184
N2280 X-0.2228 Y0.8343
N2285 X-0.1689 Y0.8469
N2290 X-0.1144 Y0.856
N2295 X-0.0594 Y0.8616
N2300 X-0.0042 Y0.8636
N2305 X0.0511 Y0.862
N2310 X0.1061 Y0.8565
N2315 X0.1606 Y0.8472
N2320 X0.2142 Y0.8339
N2325 X0.2667 Y0.8165
N2330 X0.3178 Y0.7954
N2335 X0.3671 Y0.7704
N2340 X0.4145 Y0.742
N2345 X0.4597 Y0.7102
N2350 X0.5026 Y0.6753
N2355 X0.5431 Y0.6377
N2360 X0.581 Y0.5974
N2365 X0.6162 Y0.5548
N2370 X0.6487 Y0.5101
N2375 X0.6783 Y0.4634
N2380 X0.705 Y0.415
N2385 X0.7286 Y0.365
N2390 X0.7341 Y0.3517
N2395 X0.7455 Y0.3267
N2400 X0.7614 Y0.2894
N2405 X0.7856 Y0.2147
N2410 X0.7903 Y0.196
N2415 X0.8022 Y0.14
N2420 X0.8076 Y0.1027
N2425 X0.8123 Y0.0578
N2430 X0.8137 Y0.028
N2435 X0.8141 Y-0.0093
N2440 X0.8137 Y-0.028
N2445 X0.8123 Y-0.0578
N2450 X0.8076 Y-0.1027
N2455 X0.8022 Y-0.14
N2460 X0.7903 Y-0.196
N2465 X0.7856 Y-0.2147
N2470 X0.7614 Y-0.2894
N2475 X0.7455 Y-0.3267
N2480 X0.7285 Y-0.3641
N2485 X0.7085 Y-0.4014
N2490 X0.6816 Y-0.4448
N2495 X0.6608 Y-0.4761
N2500 X0.6256 Y-0.521
N2505 X0.5994 Y-0.5507
N2510 X0.5631 Y-0.5881
N2515 X0.5509 Y-0.5997
N2520 X0.5135 Y-0.6322
N2525 X0.4575 Y-0.6738
N2530 X0.4388 Y-0.6861
N2535 X0.4015 Y-0.7085
N2540 X0.3824 Y-0.7188
N2545 X0.3642 Y-0.7282
N2550 X0.3268 Y-0.7461
N2555 X0.3012 Y-0.7561
N2560 X0.2513 Y-0.7748
N2565 X0.1961 Y-0.7902
N2570 X0.1774 Y-0.7949
N2575 X0.1401 Y-0.8019
N2580 X0.1027 Y-0.8077
N2585 X0.084 Y-0.8098
N2590 X0.0585 Y-0.8121
N2595 X0.028 Y-0.8137
N2600 X0.0093 Y-0.8141
N2605 X-0.0093
N2610 X-0.028 Y-0.8137
N2615 X-0.0585 Y-0.8121
N2620 X-0.084 Y-0.8098
N2625 X-0.1027 Y-0.8077
N2630 X-0.1401 Y-0.8019
N2635 X-0.1774 Y-0.7949
N2640 X-0.1961 Y-0.7902
N2645 X-0.2521 Y-0.7745
N2650 X-0.3081 Y-0.7536
N2655 X-0.3268 Y-0.7461
N2660 X-0.3642 Y-0.7282
N2665 X-0.3828 Y-0.7185
N2670 X-0.4015 Y-0.7085
N2675 X-0.4462 Y-0.6814
N2680 X-0.4575 Y-0.6738
N2685 X-0.5135 Y-0.6322
N2690 X-0.5509 Y-0.5997
N2695 X-0.5631 Y-0.5881
N2700 X-0.5994 Y-0.5507
N2705 X-0.6256 Y-0.521
N2710 X-0.6608 Y-0.4761
N2715 X-0.6816 Y-0.4448
N2720 X-0.7085 Y-0.4014
N2725 X-0.7285 Y-0.3641
N2730 X-0.7455 Y-0.3267
N2735 X-0.7614 Y-0.2894
N2740 X-0.7856 Y-0.2147
N2745 X-0.7903 Y-0.196
N2750 X-0.8022 Y-0.14
N2755 X-0.8076 Y-0.1027
N2760 X-0.8123 Y-0.0578
N2765 X-0.8137 Y-0.028
N2770 X-0.8141 Y0.0093
N2775 X-0.8137 Y0.028
N2780 X-0.8123 Y0.0578
N2785 X-0.8076 Y0.1027
N2790 X-0.8022 Y0.14
N2795 X-0.7903 Y0.196
N2800 X-0.7856 Y0.2147
N2805 X-0.7614 Y0.2894
N2810 X-0.7455 Y0.3267
N2815 X-0.7285 Y0.3641
N2820 X-0.7085 Y0.4014
N2825 X-0.6816 Y0.4448
N2830 X-0.6608 Y0.4761
N2835 X-0.6256 Y0.521
N2840 X-0.5994 Y0.5507
N2845 X-0.5631 Y0.5881
N2850 X-0.5509 Y0.5997
N2855 X-0.5135 Y0.6322
N2860 X-0.4575 Y0.6738
N2865 X-0.4388 Y0.6861
N2870 X-0.4015 Y0.7085
N2875 X-0.3824 Y0.7188
N2880 X-0.3642 Y0.7282
N2885 X-0.3268 Y0.7461
N2890 X-0.3012 Y0.7561
N2895 X-0.2513 Y0.7748
N2900 X-0.1961 Y0.7902
N2905 X-0.1774 Y0.7949
N2910 X-0.1401 Y0.8019
N2915 X-0.1027 Y0.8077
N2920 X-0.084 Y0.8098
N2925 X-0.0585 Y0.8121
N2930 X-0.028 Y0.8137
N2935 X-0.0093 Y0.8141
N2940 X0.0093
N2945 X0.028 Y0.8137
N2950 X0.0585 Y0.8121
N2955 X0.084 Y0.8098
N2960 X0.1027 Y0.8077
N2965 X0.1401 Y0.8019
N2970 X0.1774 Y0.7949
N2975 X0.1961 Y0.7902
N2980 X0.2521 Y0.7745
N2985 X0.3081 Y0.7536
N2990 X0.3268 Y0.7461
N2995 X0.3642 Y0.7282
N3000 X0.3828 Y0.7185
N3005 X0.4015 Y0.7085
N3010 X0.4462 Y0.6814
N3015 X0.4575 Y0.6738
N3020 X0.5135 Y0.6322
N3025 X0.5509 Y0.5997
N3030 X0.5631 Y0.5881
N3035 X0.5994 Y0.5507
N3040 X0.6256 Y0.521
N3045 X0.6608 Y0.4761
N3050 X0.6816 Y0.4448
N3055 X0.7085 Y0.4014
N3060 X0.7285 Y0.3641
N3065 X0.7341 Y0.3517
N3070 X0.7361 Y0.3486 Z-0.9099
N3075 X0.7381 Y0.3456 Z-0.909
N3080 X0.7399 Y0.3427 Z-0.9076
N3085 X0.7417 Y0.34 Z-0.9058
N3090 X0.7435 Y0.3381 Z-0.9036
N3095 X0.7451 Y0.3364 Z-0.9012
N3100 X0.7465 Y0.335 Z-0.8984
N3105 X0.7476 Y0.3339 Z-0.8954
N3110 X0.7484 Y0.3331 Z-0.8923
N3115 X0.7488 Y0.3326 Z-0.889
N3120 X0.749 Y0.3324 Z-0.8856
N3125 G0 Z0.2
N3130 G1 X-0.8468 Y-0.1792 F500.
N3135 G0 Z0.0751
N3140 G1 Z0.0126 F15.
N3145 X-0.8466 Y-0.179 Z0.0065
N3150 X-0.8462 Y-0.1782 Z0.0004
N3155 X-0.8454 Y-0.1769 Z-0.0055
N3160 X-0.8443 Y-0.1752 Z-0.0113
N3165 X-0.843 Y-0.1729 Z-0.0169
N3170 X-0.8414 Y-0.1702 Z-0.0221
N3175 X-0.8395 Y-0.1671 Z-0.0271
N3180 X-0.8374 Y-0.1635 Z-0.0316
N3185 X-0.8351 Y-0.1596 Z-0.0357
N3190 X-0.8326 Y-0.1554 Z-0.0394
N3195 X-0.8299 Y-0.1508 Z-0.0425
N3200 X-0.8271 Y-0.1461 Z-0.0451
N3205 X-0.8241 Y-0.1411 Z-0.0472
N3210 X-0.8211 Y-0.136 Z-0.0487
N3215 X-0.818 Y-0.1308 Z-0.0496
N3220 X-0.8148 Y-0.1255 Z-0.0499
N3225 G3 X-0.8079 Y-0.102 I-0.0425 J0.0253
N3230 G1 Y-0.0743
N3235 X-0.8052 Y-0.0468
N3240 X-0.7943 Y0.0074
N3245 X-0.7778 Y0.0601
N3250 X-0.7623 Y0.1132
N3255 X-0.7458 Y0.166
N3260 X-0.7273 Y0.218
N3265 X-0.7061 Y0.2691
N3270 X-0.682 Y0.3188
N3275 X-0.655 Y0.367
N3280 X-0.6249 Y0.4134
N3285 X-0.5918 Y0.4577
N3290 X-0.5557 Y0.4996
N3295 X-0.5167 Y0.5388
N3300 X-0.4751 Y0.5751
N3305 X-0.4309 Y0.6083
N3310 X-0.3844 Y0.6383
N3315 X-0.336 Y0.6649
N3320 X-0.2857 Y0.6878
N3325 X-0.2338 Y0.707
N3330 X-0.1807 Y0.7223
N3335 X-0.1266 Y0.7336
N3340 X-0.0718 Y0.7409
N3345 X-0.0166 Y0.7441
N3350 X0.0387 Y0.7433
N3355 X0.0937 Y0.7382
N3360 X0.1483 Y0.7292
N3365 X0.202 Y0.7162
N3370 X0.2546 Y0.6992
N3375 X0.3058 Y0.6784
N3380 X0.3553 Y0.6539
N3385 X0.4028 Y0.6256
N3390 X0.4481 Y0.5939
N3395 X0.491 Y0.559
N3400 X0.5311 Y0.521
N3405 X0.5684 Y0.4801
N3410 X0.6024 Y0.4366
N3415 X0.6331 Y0.3906
N3420 X0.6604 Y0.3425
N3425 X0.684 Y0.2926
N3430 X0.7039 Y0.241
N3435 X0.7199 Y0.1881
N3440 X0.7319 Y0.1341
N3445 X0.7398 Y0.0794
N3450 X0.7437 Y0.0243
N3455 X0.7433 Y-0.031
N3460 X0.739 Y-0.0861
N3465 X0.7306 Y-0.1407
N3470 X0.7181 Y-0.1946
N3475 X0.7017 Y-0.2474
N3480 X0.6813 Y-0.2988
N3485 X0.6572 Y-0.3485
N3490 X0.6296 Y-0.3964
N3495 X0.5985 Y-0.4421
N3500 X0.564 Y-0.4853
N3505 X0.5264 Y-0.5258
N3510 X0.4859 Y-0.5635
N3515 X0.4427 Y-0.598
N3520 X0.3971 Y-0.6292
N3525 X0.3493 Y-0.657
N3530 X0.2996 Y-0.6811
N3535 X0.2482 Y-0.7015
N3540 X0.1954 Y-0.718
N3545 X0.1416 Y-0.7305
N3550 X0.087 Y-0.739
N3555 X0.0319 Y-0.7434
N3560 X-0.0234 Y-0.7437
N3565 X-0.0786 Y-0.7398
N3570 X-0.1333 Y-0.732
N3575 X-0.1873 Y-0.7201
N3580 X-0.2402 Y-0.7043
N3585 X-0.2918 Y-0.6845
N3590 X-0.3418 Y-0.6609
N3595 X-0.3899 Y-0.6336
N3600 X-0.4359 Y-0.6029
N3605 X-0.4795 Y-0.5689
N3610 X-0.5204 Y-0.5317
N3615 X-0.5584 Y-0.4917
N3620 X-0.5934 Y-0.4488
N3625 X-0.625 Y-0.4035
N3630 X-0.6533 Y-0.356
N3635 X-0.6779 Y-0.3065
N3640 X-0.6965 Y-0.2544
N3645 X-0.7089 Y-0.2006
N3650 X-0.7158 Y-0.1457
N3655 X-0.7179 Y-0.0905
N3660 X-0.7157 Y-0.0352
N3665 X-0.7096 Y0.0197
N3670 X-0.6998 Y0.0741
N3675 X-0.6865 Y0.1278
N3680 X-0.6696 Y0.1804
N3685 X-0.6493 Y0.2318
N3690 X-0.6255 Y0.2817
N3695 X-0.5983 Y0.3298
N3700 X-0.5677 Y0.3758
N3705 X-0.5337 Y0.4195
N3710 X-0.4966 Y0.4605
N3715 X-0.4565 Y0.4985
N3720 X-0.4136 Y0.5333
N3725 X-0.368 Y0.5646
N3730 X-0.3201 Y0.5922
N3735 X-0.2702 Y0.616
N3740 X-0.2186 Y0.6356
N3745 X-0.1655 Y0.6511
N3750 X-0.1113 Y0.6622
N3755 X-0.0565 Y0.6689
N3760 X-0.0012 Y0.6711
N3765 X0.054 Y0.6687
N3770 X0.1089 Y0.6618
N3775 X0.163 Y0.6505
N3780 X0.216 Y0.6348
N3785 X0.2675 Y0.6148
N3790 X0.3172 Y0.5906
N3795 X0.3648 Y0.5624
N3800 X0.4099 Y0.5304
N3805 X0.4521 Y0.4948
N3810 X0.4913 Y0.4558
N3815 X0.5272 Y0.4138
N3820 X0.5595 Y0.3689
N3825 X0.588 Y0.3215
N3830 X0.6125 Y0.272
N3835 X0.6328 Y0.2206
N3840 X0.6489 Y0.1677
N3845 X0.6605 Y0.1137
N3850 X0.6676 Y0.0588
N3855 X0.6702 Y0.0036
N3860 X0.6682 Y-0.0516
N3865 X0.6616 Y-0.1065
N3870 X0.6505 Y-0.1607
N3875 X0.6351 Y-0.2137
N3880 X0.6153 Y-0.2654
N3885 X0.5914 Y-0.3152
N3890 X0.5635 Y-0.3629
N3895 X0.5316 Y-0.4081
N3900 X0.4962 Y-0.4505
N3905 X0.4573 Y-0.4899
N3910 X0.4154 Y-0.5259
N3915 X0.3707 Y-0.5583
N3920 X0.3234 Y-0.587
N3925 X0.2739 Y-0.6117
N3930 X0.2226 Y-0.6322
N3935 X0.1697 Y-0.6484
N3940 X0.1157 Y-0.6601
N3945 X0.0609 Y-0.6674
N3950 X0.0057 Y-0.6702
N3955 X-0.0495 Y-0.6683
N3960 X-0.1044 Y-0.662
N3965 X-0.1586 Y-0.6511
N3970 X-0.2118 Y-0.6358
N3975 X-0.2635 Y-0.6162
N3980 X-0.3134 Y-0.5924
N3985 X-0.3611 Y-0.5646
N3990 X-0.4064 Y-0.5329
N3995 X-0.4489 Y-0.4975
N4000 X-0.4884 Y-0.4588
N4005 X-0.5241 Y-0.4167
N4010 X-0.5553 Y-0.371
N4015 X-0.5815 Y-0.3224
N4020 X-0.6027 Y-0.2713
N4025 X-0.6188 Y-0.2184
N4030 X-0.6299 Y-0.1643
N4035 X-0.636 Y-0.1093
N4040 X-0.6374 Y-0.0541
N4045 X-0.6342 Y0.0011
N4050 X-0.6265 Y0.0558
N4055 X-0.6144 Y0.1098
N4060 X-0.598 Y0.1626
N4065 X-0.5773 Y0.2138
N4070 X-0.5526 Y0.2633
N4075 X-0.5238 Y0.3105
N4080 X-0.4912 Y0.3551
N4085 X-0.455 Y0.3969
N4090 X-0.4154 Y0.4354
N4095 X-0.3726 Y0.4704
N4100 X-0.3269 Y0.5015
N4105 X-0.2786 Y0.5284
N4110 X-0.2281 Y0.5509
N4115 X-0.1758 Y0.5688
N4120 X-0.1221 Y0.582
N4125 X-0.0674 Y0.5902
N4130 X-0.0122 Y0.5934
N4135 X0.043 Y0.5915
N4140 X0.0978 Y0.5845
N4145 X0.1518 Y0.5726
N4150 X0.2044 Y0.5557
N4155 X0.2553 Y0.534
N4160 X0.3039 Y0.5077
N4165 X0.3499 Y0.477
N4170 X0.3928 Y0.4422
N4175 X0.4323 Y0.4035
N4180 X0.468 Y0.3613
N4185 X0.4997 Y0.316
N4190 X0.527 Y0.2679
N4195 X0.5497 Y0.2175
N4200 X0.5676 Y0.1652
N4205 X0.5805 Y0.1115
N4210 X0.5883 Y0.0567
N4215 X0.591 Y0.0015
N4220 X0.5885 Y-0.0537
N4225 X0.5809 Y-0.1085
N4230 X0.5682 Y-0.1623
N4235 X0.5506 Y-0.2147
N4240 X0.5282 Y-0.2652
N4245 X0.5011 Y-0.3134
N4250 X0.4696 Y-0.3588
N4255 X0.434 Y-0.4011
N4260 X0.3946 Y-0.4399
N4265 X0.3518 Y-0.4748
N4270 X0.3059 Y-0.5057
N4275 X0.2573 Y-0.5321
N4280 X0.2065 Y-0.5538
N4285 X0.1538 Y-0.5706
N4290 X0.0998 Y-0.5825
N4295 X0.045 Y-0.5892
N4300 X-0.0103 Y-0.5908
N4305 X-0.0655 Y-0.5873
N4310 X-0.1201 Y-0.5787
N4315 X-0.1736 Y-0.5649
N4320 X-0.2256 Y-0.5462
N4325 X-0.2756 Y-0.5227
N4330 X-0.3231 Y-0.4943
N4335 X-0.3673 Y-0.4611
N4340 X-0.4077 Y-0.4234
N4345 X-0.4437 Y-0.3815
N4350 X-0.475 Y-0.3359
N4355 X-0.5013 Y-0.2873
N4360 X-0.5223 Y-0.2362
N4365 X-0.538 Y-0.1831
N4370 X-0.5482 Y-0.1288
N4375 X-0.5529 Y-0.0737
N4380 X-0.5523 Y-0.0185
N4385 X-0.5463 Y0.0365
N4390 X-0.535 Y0.0906
N4395 X-0.5186 Y0.1434
N4400 X-0.4973 Y0.1944
N4405 X-0.4711 Y0.2431
N4410 X-0.4403 Y0.289
N4415 X-0.4051 Y0.3316
N4420 X-0.3658 Y0.3705
N4425 X-0.3229 Y0.4053
N4430 X-0.2766 Y0.4356
N4435 X-0.2276 Y0.461
N4440 X-0.1761 Y0.4812
N4445 X-0.1228 Y0.496
N4450 X-0.0683 Y0.5051
N4455 X-0.0131 Y0.5084
N4460 X0.0421 Y0.5059
N4465 X0.0967 Y0.4975
N4470 X0.1502 Y0.4833
N4475 X0.2018 Y0.4635
N4480 X0.2509 Y0.4382
N4485 X0.2971 Y0.4078
N4490 X0.3397 Y0.3726
N4495 X0.3782 Y0.3329
N4500 X0.4122 Y0.2893
N4505 X0.4412 Y0.2423
N4510 X0.465 Y0.1924
N4515 X0.4831 Y0.1401
N4520 X0.4954 Y0.0863
N4525 X0.5018 Y0.0313
N4530 X0.5021 Y-0.0239
N4535 X0.4964 Y-0.0789
N4540 X0.4847 Y-0.1329
N4545 X0.4671 Y-0.1853
N4550 X0.4438 Y-0.2355
N4555 X0.4152 Y-0.2828
N4560 X0.3816 Y-0.3267
N4565 X0.3434 Y-0.3666
N4570 X0.301 Y-0.4022
N4575 X0.255 Y-0.4328
N4580 X0.2059 Y-0.4581
N4585 X0.1543 Y-0.478
N4590 X0.1008 Y-0.492
N4595 X0.0461 Y-0.5001
N4600 X-0.0091 Y-0.5021
N4605 X-0.0642 Y-0.4979
N4610 X-0.1185 Y-0.4874
N4615 X-0.1711 Y-0.4704
N4620 X-0.2212 Y-0.4471
N4625 X-0.2681 Y-0.4179
N4630 X-0.311 Y-0.383
N4635 X-0.3493 Y-0.3431
N4640 X-0.3823 Y-0.2988
N4645 X-0.4097 Y-0.2508
N4650 X-0.4311 Y-0.1998
N4655 X-0.4462 Y-0.1466
N4660 X-0.4549 Y-0.092
N4665 X-0.457 Y-0.0368
N4670 X-0.4526 Y0.0183
N4675 X-0.4417 Y0.0725
N4680 X-0.4245 Y0.125
N4685 X-0.4011 Y0.1751
N4690 X-0.3718 Y0.222
N4695 X-0.337 Y0.265
N4700 X-0.2973 Y0.3034
N4705 X-0.2531 Y0.3366
N4710 X-0.205 Y0.3639
N4715 X-0.154 Y0.3851
N4720 X-0.1006 Y0.3994
N4725 X-0.0458 Y0.4068
N4730 X0.0095 Y0.407
N4735 X0.0643 Y0.3999
N4740 X0.1177 Y0.3856
N4745 X0.1687 Y0.3644
N4750 X0.2165 Y0.3365
N4755 X0.26 Y0.3024
N4760 X0.2984 Y0.2627
N4765 X0.3312 Y0.2181
N4770 X0.3575 Y0.1695
N4775 X0.3768 Y0.1177
N4780 X0.3888 Y0.0638
N4785 X0.3933 Y0.0087
N4790 X0.39 Y-0.0465
N4795 X0.3791 Y-0.1007
N4800 X0.3608 Y-0.1529
N4805 X0.3353 Y-0.2019
N4810 X0.3032 Y-0.2469
N4815 X0.2652 Y-0.287
N4820 X0.2218 Y-0.3213
N4825 X0.1739 Y-0.349
N4830 X0.1225 Y-0.3692
N4835 X0.0686 Y-0.3814
N4840 X0.0134 Y-0.3851
N4845 X-0.0416 Y-0.3799
N4850 X-0.0951 Y-0.3659
N4855 X-0.1456 Y-0.3435
N4860 X-0.191 Y-0.3119
N4865 X-0.2307 Y-0.2735
N4870 X-0.2635 Y-0.229
N4875 X-0.2885 Y-0.1797
N4880 X-0.3048 Y-0.1269
N4885 X-0.3118 Y-0.072
N4890 X-0.309 Y-0.0168
N4895 X-0.296 Y0.0369
N4900 X-0.2846 Y0.0621
N4905 X-0.2707 Y0.086
N4910 X-0.2545 Y0.1084
N4915 X-0.2362 Y0.1291
N4920 X-0.2159 Y0.1479
N4925 X-0.1939 Y0.1646
N4930 X-0.1703 Y0.179
N4935 X-0.1454 Y0.191
N4940 X-0.1292 Y0.1968
N4945 G3 X-0.1082 Y0.2092 I-0.0206 J0.059
N4950 G1 X-0.1036 Y0.2133 Z-0.0496
N4955 X-0.0991 Y0.2173 Z-0.0487
N4960 X-0.0946 Y0.2213 Z-0.0472
N4965 X-0.0903 Y0.2251 Z-0.0451
N4970 X-0.0862 Y0.2288 Z-0.0425
N4975 X-0.0823 Y0.2323 Z-0.0394
N4980 X-0.0786 Y0.2356 Z-0.0357
N4985 X-0.0752 Y0.2386 Z-0.0316
N4990 X-0.0721 Y0.2414 Z-0.0271
N4995 X-0.0694 Y0.2438 Z-0.0221
N5000 X-0.0671 Y0.2459 Z-0.0169
N5005 X-0.0651 Y0.2476 Z-0.0113
N5010 X-0.0636 Y0.249 Z-0.0055
N5015 X-0.0624 Y0.25 Z0.0004
N5020 X-0.0618 Y0.2506 Z0.0065
N5025 X-0.0615 Y0.2508 Z0.0126
N5030 G0 Z0.6

N5035 M5
N5040 M9
N5045 G53 G0 Z0.
N5050 X0.
N5055 G53 G0 Y0.
N5060 M30

%
