%
O02000
(Using high feed G1 F500. instead of G0.)
(T3 D=0.625 CR=0. - ZMIN=-0.9102 - flat end mill)
N10 G90 G17
N15 G20
N20 G53 G0 Z0.

(2D Contour1)
N25 T3 M6
N30 S8000 M3
N35 G54
N40 G17 G90
N45 M8
N50 G1 X0.9908 Y0.0625 F500.
N55 G0 G43 Z0.6 H3
N60 G0 Z0.2
N65 G1 Z-0.8477 F10.
N70 G18 G3 X0.9283 Z-0.9102 I-0.0625 K0.
N75 G1 X0.8658
N80 G17 G3 X0.8033 Y0. I0. J-0.0625
N85 G2 X-0.8033 I-0.8033 J0. F15.
N90 X0.8033 I0.8033 J0.
N95 G3 X0.8658 Y-0.0625 I0.0625 J0. F10.
N100 G1 X0.9283
N105 G18 G2 X0.9908 Z-0.8477 I0. K0.0625
N110 G0 Z0.6

N115 M5
N120 M9
N125 G53 G0 Z0.
N130 X0.
N135 G53 G0 Y0.
N140 M30

%
