%
O03000
(Using high feed G1 F500. instead of G0.)
(T5 D=0.5 CR=0. TAPER=118deg - ZMIN=-0.1 - center drill)
N10 G90 G17
N15 G20
N20 G53 G0 Z0.

(Drill4)
N25 T5 M6
N30 S4000 M3
N35 G54
N40 G17 G90
N45 M8
N50 G1 X0.315 Y0. F500.
N55 G0 G43 Z0.6 H5
N60 G0 Z0.2
N65 G98 G81 X0.315 Y0. Z-0.1 R0.15 F10.
N70 X0. Y0.315
N75 X-0.315 Y0.
N80 X0. Y-0.315
N85 G80
N90 G0 Z0.6

N95 M5
N100 M9
N105 G53 G0 Z0.
N110 X0.
N115 G53 G0 Y0.
N120 M30

%
