%
O04000
(Using high feed G1 F500. instead of G0.)
(T4 D=0.242 CR=0. TAPER=118deg - ZMIN=-1.0329 - drill)
N10 G90 G17
N15 G20
N20 G53 G0 Z2.

(Drill3)
N25 T4 M6
N30 S5600 M3
N35 G54
N40 G17 G90
N45 M8
N50 G1 X0.315 Y0. F500.
N55 G0 G43 Z0.6 H4
N60 G0 Z0.2
N65 G98 G83 X0.315 Y0. Z-1.0329 R0.15 Q0.0605 F15.
N70 X0. Y0.315
N75 X-0.315 Y0.
N80 X0. Y-0.315
N85 G80
N90 G0 Z0.6

N95 M5
N100 M9
N105 G53 G0 Z2.
N110 X0.
N115 G53 G0 Y0.
N120 M30

%
